packages/kaspersky-hexa-ui-icons/src/iconsSVGs/16/SecurityLIVESolid.svg

<svg width="16" height="16" viewBox="0 0 16 16" fill="none" xmlns="http://www.w3.org/2000/svg">
<path fill-rule="evenodd" clip-rule="evenodd" d="M5.604 2.02656C5.85784 1.77272 6.2694 1.77272 6.52324 2.02656L9.44402 4.94734L11.0036 3.38777C11.2574 3.13393 11.669 3.13393 11.9228 3.38777C12.1767 3.64161 12.1767 4.05317 11.9228 4.30701L10.3633 5.86658L13.6629 9.16621C13.9167 9.42005 13.9167 9.83161 13.6629 10.0854L13.299 10.4494C12.0616 11.6867 10.3968 12.2361 8.77989 12.0975V12.8641H10.7966C11.1555 12.8641 11.4466 13.1551 11.4466 13.5141C11.4466 13.873 11.1555 14.1641 10.7966 14.1641H5.46322C5.10423 14.1641 4.81322 13.873 4.81322 13.5141C4.81322 13.1551 5.10423 12.8641 5.46322 12.8641H7.47989V11.8474L7.48008 11.8315C6.6612 11.5614 5.89142 11.1007 5.2401 10.4494C3.0147 8.22396 3.01469 4.61587 5.24009 2.39047L5.604 2.02656Z" fill="black"/>
</svg>

<svg xmlns="http://www.w3.org/2000/svg" width="16" height="16" fill="none" viewBox="0 0 16 16"><path fill="#000" fill-rule="evenodd" d="M5.604 2.0264a.65.65 0 0 1 .9192 0L9.444 4.9472l1.5596-1.5595a.65.65 0 1 1 .9192.9192l-1.5595 1.5596 3.2996 3.2996a.65.65 0 0 1 0 .9192l-.3639.3639c-1.2374 1.2374-2.9022 1.7868-4.5191 1.6481v.7666h2.0167a.65.65 0 0 1 0 1.3H5.4632a.65.65 0 1 1 0-1.3H7.48v-1.0166l.0002-.016c-.8189-.27-1.5887-.7307-2.24-1.3821-2.2254-2.2254-2.2254-5.8334 0-8.0588z"/></svg>
